covers/svg/cover-twill.svg

<svg xmlns="http://www.w3.org/2000/svg" width="1280" height="640" fill="none"><path fill="#EDEFF3" d="M0 0h1280v640H0z"/><path fill="#1A1A1A" d="M1139.65 596h-9.85v-1.699l6.55-9.153h-6.15v-2.121h9.26v1.875l-6.42 8.977h6.61zm7.97-13.219c1.16 0 2.15.239 2.98.715.83.477 1.46 1.152 1.91 2.027.44.875.67 1.922.67 3.141v1.477h-8.66c.03 1.257.36 2.226 1 2.906.65.68 1.56 1.019 2.72 1.019.83 0 1.57-.078 2.23-.234.66-.164 1.35-.402 2.05-.715v2.238q-.975.458-1.98.668c-.67.141-1.48.211-2.42.211q-1.905 0-3.36-.738c-.96-.5-1.71-1.242-2.26-2.226q-.81-1.478-.81-3.668c0-1.454.25-2.688.74-3.704q.735-1.523 2.07-2.32t3.12-.797m0 2.074c-.87 0-1.57.282-2.11.844-.53.563-.84 1.387-.94 2.473h5.91q-.015-.973-.33-1.723c-.2-.5-.51-.89-.94-1.172q-.615-.422-1.59-.422m15.24-2.074c.21 0 .45.012.71.035s.48.055.67.094l-.26 2.578a3.4 3.4 0 0 0-.61-.105 6 6 0 0 0-.63-.035q-.735 0-1.41.246c-.44.156-.84.398-1.18.726-.35.321-.61.723-.81 1.207s-.29 1.047-.29 1.688V596h-2.77v-12.973h2.16l.37 2.285h.13q.39-.69.96-1.265c.39-.383.82-.688 1.31-.914a3.8 3.8 0 0 1 1.65-.352m15.26 6.703q0 1.618-.42 2.871-.42 1.254-1.23 2.122a5.4 5.4 0 0 1-1.94 1.312c-.76.297-1.62.445-2.57.445-.89 0-1.71-.148-2.45-.445a5.5 5.5 0 0 1-1.93-1.312q-.81-.868-1.26-2.122c-.29-.835-.44-1.793-.44-2.871 0-1.429.24-2.64.74-3.632q.75-1.5 2.13-2.286c.92-.523 2.02-.785 3.29-.785 1.2 0 2.25.262 3.17.785.91.524 1.63 1.286 2.14 2.286.52 1 .77 2.21.77 3.632m-9.41 0c0 .946.12 1.754.34 2.426q.36 1.008 1.08 1.547c.49.352 1.11.527 1.88.527.76 0 1.39-.175 1.87-.527.49-.359.84-.875 1.07-1.547s.34-1.48.34-2.426c0-.945-.11-1.746-.34-2.402-.23-.664-.58-1.168-1.07-1.512-.48-.351-1.11-.527-1.88-.527-1.14 0-1.98.383-2.5 1.148-.52.766-.79 1.864-.79 3.293m19.24-6.703c1.53 0 2.77.563 3.7 1.688.94 1.125 1.4 2.797 1.4 5.015 0 1.469-.21 2.707-.65 3.715-.43 1-1.04 1.758-1.82 2.274q-1.155.76-2.7.761c-.66 0-1.23-.086-1.72-.257a4.4 4.4 0 0 1-1.24-.668 5 5 0 0 1-.87-.914h-.16c.04.312.07.66.11 1.043.04.374.05.718.05 1.031v5.285h-2.76v-18.727h2.25l.39 1.793h.12c.25-.367.54-.707.88-1.019.36-.313.78-.559 1.27-.739.5-.187 1.08-.281 1.75-.281m-.74 2.25q-1.14 0-1.83.457c-.45.297-.79.746-1 1.348q-.3.902-.33 2.262v.386q0 1.442.3 2.45.3.995.99 1.523c.47.344 1.11.516 1.9.516.67 0 1.23-.184 1.67-.551q.66-.551.99-1.57t.33-2.403q0-2.097-.75-3.258c-.49-.773-1.25-1.16-2.27-1.16m17.75 7.266c0 .851-.21 1.57-.62 2.156s-1.02 1.031-1.82 1.336c-.79.297-1.75.445-2.9.445-.91 0-1.69-.066-2.35-.199a8 8 0 0 1-1.84-.586v-2.379c.62.289 1.31.539 2.08.75q1.155.317 2.19.317c.91 0 1.56-.141 1.96-.422.39-.289.59-.672.59-1.149q0-.421-.24-.75c-.16-.226-.46-.457-.89-.691-.43-.242-1.07-.531-1.9-.867-.82-.328-1.51-.656-2.08-.985-.56-.328-.98-.722-1.27-1.183-.29-.469-.44-1.067-.44-1.793 0-1.149.46-2.02 1.36-2.613.92-.602 2.12-.903 3.62-.903q1.2 0 2.25.246c.72.157 1.41.387 2.09.692l-.87 2.074q-.87-.387-1.77-.633a6.3 6.3 0 0 0-1.79-.258c-.71 0-1.25.11-1.63.328-.37.219-.55.532-.55.938q0 .457.27.773.27.317.93.633c.44.211 1.06.473 1.85.785.77.297 1.44.61 2 .938.57.32 1.01.715 1.31 1.183.31.469.46 1.075.46 1.817m2.58 2.25c0-.641.16-1.09.49-1.348.34-.265.74-.398 1.22-.398s.88.133 1.22.398q.51.387.51 1.348 0 .938-.51 1.359c-.34.274-.74.41-1.22.41s-.88-.136-1.22-.41c-.33-.281-.49-.734-.49-1.359m9.74-11.52V596h-2.76v-12.973zm-1.36-4.968c.42 0 .78.113 1.09.339s.47.618.47 1.172c0 .547-.16.938-.47 1.172-.31.227-.67.34-1.09.34-.44 0-.81-.113-1.12-.34-.29-.234-.44-.625-.44-1.172 0-.554.15-.945.44-1.172.31-.226.68-.339 1.12-.339m16.79 11.425q0 1.618-.42 2.871-.42 1.254-1.23 2.122a5.4 5.4 0 0 1-1.95 1.312c-.75.297-1.61.445-2.56.445-.89 0-1.71-.148-2.45-.445a5.7 5.7 0 0 1-1.94-1.312c-.54-.579-.95-1.286-1.25-2.122q-.45-1.253-.45-2.871c0-1.429.25-2.64.74-3.632.5-1 1.21-1.762 2.14-2.286.92-.523 2.02-.785 3.29-.785 1.19 0 2.25.262 3.16.785.92.524 1.63 1.286 2.15 2.286.51 1 .77 2.21.77 3.632m-9.41 0c0 .946.11 1.754.34 2.426.24.672.59 1.188 1.08 1.547.48.352 1.11.527 1.87.527.77 0 1.39-.175 1.88-.527.48-.359.84-.875 1.07-1.547.22-.672.34-1.48.34-2.426 0-.945-.12-1.746-.34-2.402-.23-.664-.59-1.168-1.07-1.512-.49-.351-1.11-.527-1.89-.527q-1.71 0-2.49 1.148c-.53.766-.79 1.864-.79 3.293"/><path fill="#323232" d="m291.096 179.457-96.358 36.828a22.43 22.43 0 0 0-14.238 20.909v92.714l44.283-25.449v-52.131L299 223.853V178c-2.701.006-5.379.5-7.904 1.457M225.568 387.085 299 344.763v-51.121l-113.455 65.415a10.21 10.21 0 0 0-5.045 8.745v34.249a22.4 22.4 0 0 0 3.952 12.522 22.4 22.4 0 0 0 10.286 8.162l96.358 36.828a22.4 22.4 0 0 0 7.904 1.458v-45.853z"/><path fill="#1A1A1A" d="M412.791 279.066a9.36 9.36 0 0 0 4.709-8.24v-33.632a22.43 22.43 0 0 0-14.238-20.909l-96.414-36.828A22.4 22.4 0 0 0 299 178v45.853l72.871 28.027L299 293.865v51.122zM306.848 459.563l96.414-36.828a22.43 22.43 0 0 0 14.238-20.684v-93.667l-44.284 25.561v52.859L299 415.168v45.853a22.4 22.4 0 0 0 7.848-1.458"/><path fill="#939393" d="m623.5 295.553-6.043-6.043-23.957 23.957-23.957-23.957-6.043 6.043 23.957 23.957-23.957 23.957 6.043 6.043 23.957-23.957 23.957 23.957 6.043-6.043-23.957-23.957z"/><path fill="#000" d="M922.057 286.617h-16.404v69.063h16.404zm-22.971 6.574c0 5.453-4.405 9.872-9.844 9.872-5.438-.007-9.843-4.426-9.843-9.865 0-5.453 4.405-9.865 9.843-9.865 5.439.007 9.844 4.426 9.844 9.865zm47.569-6.574h-16.404v69.063h16.404zm-92.454 47.264-11.703-25.892h-12.302l-10.835 25.155-11.311-25.155h-15.587v-13.156H776.06v13.156h-6.56v14.689h6.56v33.002h16.403v-33.002h4.919l16.41 33.002h11.478l10.914-26.051 12.05 26.051h11.478l16.403-33.002h4.919v33.002h16.403v-47.691h-31.165l-12.086 25.892z"/><path fill="#6621D9" d="M989.456 286.588h75.494c19.08 0 34.55 15.47 34.55 34.55s-15.47 34.55-34.55 34.55h-75.494c-19.079 0-34.55-15.471-34.55-34.55 0-19.08 15.471-34.55 34.55-34.55"/><path fill="#fff" d="M1006.9 315.894h-5.88a7.2 7.2 0 0 0-.92-2.553 6.9 6.9 0 0 0-1.683-1.909 7.1 7.1 0 0 0-2.292-1.172 8.8 8.8 0 0 0-2.749-.412q-2.624.002-4.65 1.316-2.028 1.3-3.175 3.826c-.767 1.671-1.15 3.718-1.15 6.126s.383 4.528 1.15 6.206q1.16 2.505 3.175 3.797c1.352.846 2.893 1.265 4.636 1.265.962 0 1.866-.123 2.698-.376a7.5 7.5 0 0 0 2.278-1.142 6.94 6.94 0 0 0 2.682-4.354l5.88.028a12.883 12.883 0 0 1-4.27 7.841c-1.17 1.012-2.55 1.808-4.118 2.379-1.57.564-3.32.846-5.237.846q-4.242 0-7.572-1.952-3.331-1.966-5.251-5.656-1.918-3.7-1.917-8.875c0-3.45.644-6.415 1.931-8.867q1.933-3.701 5.266-5.656c2.22-1.302 4.737-1.96 7.543-1.96 1.794 0 3.457.253 4.998.752a12.9 12.9 0 0 1 4.117 2.206c1.21.962 2.19 2.141 2.97 3.544.79 1.389 1.3 2.98 1.54 4.767zm5.34-10.827h7.13l9.55 23.253h.38l9.55-23.253h7.14v32.098h-5.6v-22.052h-.3l-8.89 21.958h-4.18l-8.9-22.001h-.3v22.095h-5.6v-32.098zm57.58 8.824c-.14-1.367-.76-2.438-1.85-3.197-1.07-.767-2.48-1.143-4.21-1.143q-1.815-.002-3.12.55c-.87.361-1.53.861-2 1.49-.46.629-.69 1.338-.71 2.148 0 .665.16 1.251.46 1.736.31.491.74.911 1.27 1.251q.81.5 1.77.846c.65.232 1.31.42 1.96.579l3.02.752c1.22.282 2.38.665 3.51 1.143 1.13.477 2.14 1.085 3.04 1.815a8.1 8.1 0 0 1 2.13 2.647q.78 1.553.78 3.638c0 1.881-.48 3.537-1.45 4.969-.96 1.417-2.35 2.531-4.18 3.334-1.8.796-4 1.193-6.58 1.193-2.57 0-4.68-.383-6.52-1.157-1.83-.774-3.27-1.902-4.3-3.385s-1.59-3.29-1.67-5.424h5.74c.08 1.114.42 2.047 1.03 2.785.61.744 1.4 1.294 2.37 1.663.99.362 2.09.542 3.31.542s2.38-.188 3.33-.564c.97-.383 1.72-.918 2.27-1.598.54-.687.82-1.497.83-2.409-.01-.838-.25-1.526-.74-2.068-.48-.557-1.16-1.013-2.02-1.381-.98-.413-1.99-.753-3.02-1.006l-3.66-.94c-2.65-.68-4.74-1.707-6.28-3.088-1.53-1.389-2.3-3.233-2.3-5.533 0-1.888.52-3.551 1.54-4.969q1.56-2.135 4.23-3.305c1.78-.796 3.8-1.194 6.05-1.194s4.28.398 6 1.194q2.595 1.171 4.08 3.276c.98 1.389 1.49 2.987 1.52 4.795h-5.61z"/></svg>

<svg width="1280" height="640" viewBox="0 0 1280 640" fill="none" xmlns="http://www.w3.org/2000/svg">
<rect width="1280" height="640" fill="#EDEFF3"/>
<path d="M1139.65 596H1129.8V594.301L1136.35 585.148H1130.2V583.027H1139.46V584.902L1133.04 593.879H1139.65V596ZM1147.62 582.781C1148.78 582.781 1149.77 583.02 1150.6 583.496C1151.43 583.973 1152.06 584.648 1152.51 585.523C1152.95 586.398 1153.18 587.445 1153.18 588.664V590.141H1144.52C1144.55 591.398 1144.88 592.367 1145.52 593.047C1146.17 593.727 1147.08 594.066 1148.24 594.066C1149.07 594.066 1149.81 593.988 1150.47 593.832C1151.13 593.668 1151.82 593.43 1152.52 593.117V595.355C1151.87 595.66 1151.21 595.883 1150.54 596.023C1149.87 596.164 1149.06 596.234 1148.12 596.234C1146.85 596.234 1145.73 595.988 1144.76 595.496C1143.8 594.996 1143.05 594.254 1142.5 593.27C1141.96 592.285 1141.69 591.062 1141.69 589.602C1141.69 588.148 1141.94 586.914 1142.43 585.898C1142.92 584.883 1143.61 584.109 1144.5 583.578C1145.39 583.047 1146.43 582.781 1147.62 582.781ZM1147.62 584.855C1146.75 584.855 1146.05 585.137 1145.51 585.699C1144.98 586.262 1144.67 587.086 1144.57 588.172H1150.48C1150.47 587.523 1150.36 586.949 1150.15 586.449C1149.95 585.949 1149.64 585.559 1149.21 585.277C1148.8 584.996 1148.27 584.855 1147.62 584.855ZM1162.86 582.781C1163.07 582.781 1163.31 582.793 1163.57 582.816C1163.83 582.84 1164.05 582.871 1164.24 582.91L1163.98 585.488C1163.82 585.441 1163.61 585.406 1163.37 585.383C1163.14 585.359 1162.93 585.348 1162.74 585.348C1162.25 585.348 1161.78 585.43 1161.33 585.594C1160.89 585.75 1160.49 585.992 1160.15 586.32C1159.8 586.641 1159.54 587.043 1159.34 587.527C1159.14 588.012 1159.05 588.574 1159.05 589.215V596H1156.28V583.027H1158.44L1158.81 585.312H1158.94C1159.2 584.852 1159.52 584.43 1159.9 584.047C1160.29 583.664 1160.72 583.359 1161.21 583.133C1161.71 582.898 1162.26 582.781 1162.86 582.781ZM1178.12 589.484C1178.12 590.562 1177.98 591.52 1177.7 592.355C1177.42 593.191 1177.01 593.898 1176.47 594.477C1175.93 595.047 1175.29 595.484 1174.53 595.789C1173.77 596.086 1172.91 596.234 1171.96 596.234C1171.07 596.234 1170.25 596.086 1169.51 595.789C1168.77 595.484 1168.12 595.047 1167.58 594.477C1167.04 593.898 1166.62 593.191 1166.32 592.355C1166.03 591.52 1165.88 590.562 1165.88 589.484C1165.88 588.055 1166.12 586.844 1166.62 585.852C1167.12 584.852 1167.83 584.09 1168.75 583.566C1169.67 583.043 1170.77 582.781 1172.04 582.781C1173.24 582.781 1174.29 583.043 1175.21 583.566C1176.12 584.09 1176.84 584.852 1177.35 585.852C1177.87 586.852 1178.12 588.062 1178.12 589.484ZM1168.71 589.484C1168.71 590.43 1168.83 591.238 1169.05 591.91C1169.29 592.582 1169.65 593.098 1170.13 593.457C1170.62 593.809 1171.24 593.984 1172.01 593.984C1172.77 593.984 1173.4 593.809 1173.88 593.457C1174.37 593.098 1174.72 592.582 1174.95 591.91C1175.18 591.238 1175.29 590.43 1175.29 589.484C1175.29 588.539 1175.18 587.738 1174.95 587.082C1174.72 586.418 1174.37 585.914 1173.88 585.57C1173.4 585.219 1172.77 585.043 1172 585.043C1170.86 585.043 1170.02 585.426 1169.5 586.191C1168.98 586.957 1168.71 588.055 1168.71 589.484ZM1187.95 582.781C1189.48 582.781 1190.72 583.344 1191.65 584.469C1192.59 585.594 1193.05 587.266 1193.05 589.484C1193.05 590.953 1192.84 592.191 1192.4 593.199C1191.97 594.199 1191.36 594.957 1190.58 595.473C1189.81 595.98 1188.91 596.234 1187.88 596.234C1187.22 596.234 1186.65 596.148 1186.16 595.977C1185.68 595.805 1185.27 595.582 1184.92 595.309C1184.58 595.027 1184.29 594.723 1184.05 594.395H1183.89C1183.93 594.707 1183.96 595.055 1184 595.438C1184.04 595.812 1184.05 596.156 1184.05 596.469V601.754H1181.29V583.027H1183.54L1183.93 584.82H1184.05C1184.3 584.453 1184.59 584.113 1184.93 583.801C1185.29 583.488 1185.71 583.242 1186.2 583.062C1186.7 582.875 1187.28 582.781 1187.95 582.781ZM1187.21 585.031C1186.45 585.031 1185.84 585.184 1185.38 585.488C1184.93 585.785 1184.59 586.234 1184.38 586.836C1184.18 587.438 1184.07 588.191 1184.05 589.098V589.484C1184.05 590.445 1184.15 591.262 1184.35 591.934C1184.55 592.598 1184.88 593.105 1185.34 593.457C1185.81 593.801 1186.45 593.973 1187.24 593.973C1187.91 593.973 1188.47 593.789 1188.91 593.422C1189.35 593.055 1189.68 592.531 1189.9 591.852C1190.12 591.172 1190.23 590.371 1190.23 589.449C1190.23 588.051 1189.98 586.965 1189.48 586.191C1188.99 585.418 1188.23 585.031 1187.21 585.031ZM1204.96 592.297C1204.96 593.148 1204.75 593.867 1204.34 594.453C1203.93 595.039 1203.32 595.484 1202.52 595.789C1201.73 596.086 1200.77 596.234 1199.62 596.234C1198.71 596.234 1197.93 596.168 1197.27 596.035C1196.62 595.91 1196.01 595.715 1195.43 595.449V593.07C1196.05 593.359 1196.74 593.609 1197.51 593.82C1198.28 594.031 1199.01 594.137 1199.7 594.137C1200.61 594.137 1201.26 593.996 1201.66 593.715C1202.05 593.426 1202.25 593.043 1202.25 592.566C1202.25 592.285 1202.17 592.035 1202.01 591.816C1201.85 591.59 1201.55 591.359 1201.12 591.125C1200.69 590.883 1200.05 590.594 1199.22 590.258C1198.4 589.93 1197.71 589.602 1197.14 589.273C1196.58 588.945 1196.16 588.551 1195.87 588.09C1195.58 587.621 1195.43 587.023 1195.43 586.297C1195.43 585.148 1195.89 584.277 1196.79 583.684C1197.71 583.082 1198.91 582.781 1200.41 582.781C1201.21 582.781 1201.96 582.863 1202.66 583.027C1203.38 583.184 1204.07 583.414 1204.75 583.719L1203.88 585.793C1203.3 585.535 1202.71 585.324 1202.11 585.16C1201.53 584.988 1200.93 584.902 1200.32 584.902C1199.61 584.902 1199.07 585.012 1198.69 585.23C1198.32 585.449 1198.14 585.762 1198.14 586.168C1198.14 586.473 1198.23 586.73 1198.41 586.941C1198.59 587.152 1198.9 587.363 1199.34 587.574C1199.78 587.785 1200.4 588.047 1201.19 588.359C1201.96 588.656 1202.63 588.969 1203.19 589.297C1203.76 589.617 1204.2 590.012 1204.5 590.48C1204.81 590.949 1204.96 591.555 1204.96 592.297ZM1207.54 594.547C1207.54 593.906 1207.7 593.457 1208.03 593.199C1208.37 592.934 1208.77 592.801 1209.25 592.801C1209.73 592.801 1210.13 592.934 1210.47 593.199C1210.81 593.457 1210.98 593.906 1210.98 594.547C1210.98 595.172 1210.81 595.625 1210.47 595.906C1210.13 596.18 1209.73 596.316 1209.25 596.316C1208.77 596.316 1208.37 596.18 1208.03 595.906C1207.7 595.625 1207.54 595.172 1207.54 594.547ZM1217.28 583.027V596H1214.52V583.027H1217.28ZM1215.92 578.059C1216.34 578.059 1216.7 578.172 1217.01 578.398C1217.32 578.625 1217.48 579.016 1217.48 579.57C1217.48 580.117 1217.32 580.508 1217.01 580.742C1216.7 580.969 1216.34 581.082 1215.92 581.082C1215.48 581.082 1215.11 580.969 1214.8 580.742C1214.51 580.508 1214.36 580.117 1214.36 579.57C1214.36 579.016 1214.51 578.625 1214.8 578.398C1215.11 578.172 1215.48 578.059 1215.92 578.059ZM1232.71 589.484C1232.71 590.562 1232.57 591.52 1232.29 592.355C1232.01 593.191 1231.6 593.898 1231.06 594.477C1230.52 595.047 1229.87 595.484 1229.11 595.789C1228.36 596.086 1227.5 596.234 1226.55 596.234C1225.66 596.234 1224.84 596.086 1224.1 595.789C1223.36 595.484 1222.71 595.047 1222.16 594.477C1221.62 593.898 1221.21 593.191 1220.91 592.355C1220.61 591.52 1220.46 590.562 1220.46 589.484C1220.46 588.055 1220.71 586.844 1221.2 585.852C1221.7 584.852 1222.41 584.09 1223.34 583.566C1224.26 583.043 1225.36 582.781 1226.63 582.781C1227.82 582.781 1228.88 583.043 1229.79 583.566C1230.71 584.09 1231.42 584.852 1231.94 585.852C1232.45 586.852 1232.71 588.062 1232.71 589.484ZM1223.3 589.484C1223.3 590.43 1223.41 591.238 1223.64 591.91C1223.88 592.582 1224.23 593.098 1224.72 593.457C1225.2 593.809 1225.83 593.984 1226.59 593.984C1227.36 593.984 1227.98 593.809 1228.47 593.457C1228.95 593.098 1229.31 592.582 1229.54 591.91C1229.76 591.238 1229.88 590.43 1229.88 589.484C1229.88 588.539 1229.76 587.738 1229.54 587.082C1229.31 586.418 1228.95 585.914 1228.47 585.57C1227.98 585.219 1227.36 585.043 1226.58 585.043C1225.44 585.043 1224.61 585.426 1224.09 586.191C1223.56 586.957 1223.3 588.055 1223.3 589.484Z" fill="#1A1A1A"/>
<path d="M291.096 179.457L194.738 216.285C190.536 217.933 186.929 220.81 184.389 224.54C181.849 228.27 180.493 232.681 180.5 237.194V329.908L224.783 304.459V252.328L299 223.853V178C296.299 178.006 293.621 178.5 291.096 179.457Z" fill="#323232"/>
<path d="M225.568 387.085L299 344.763V293.642L185.545 359.057C184.018 359.952 182.75 361.229 181.865 362.762C180.98 364.295 180.51 366.032 180.5 367.802V402.051C180.538 406.526 181.914 410.887 184.452 414.573C186.989 418.26 190.572 421.102 194.738 422.735L291.096 459.563C293.621 460.521 296.299 461.015 299 461.021V415.168L225.568 387.085Z" fill="#323232"/>
<path d="M412.791 279.066C414.239 278.237 415.439 277.036 416.267 275.587C417.095 274.139 417.52 272.495 417.5 270.826V237.194C417.506 232.68 416.151 228.27 413.611 224.54C411.07 220.81 407.463 217.933 403.262 216.285L306.848 179.457C304.34 178.506 301.682 178.013 299 178V223.853L371.871 251.88L299 293.865V344.987L412.791 279.066Z" fill="#1A1A1A"/>
<path d="M306.848 459.563L403.262 422.735C407.428 421.102 411.01 418.259 413.548 414.573C416.085 410.887 417.461 406.526 417.5 402.051V308.384L373.216 333.945V386.804L299 415.168V461.021C301.682 461.008 304.34 460.514 306.848 459.563Z" fill="#1A1A1A"/>
<path d="M623.5 295.553L617.457 289.51L593.5 313.467L569.543 289.51L563.5 295.553L587.457 319.51L563.5 343.467L569.543 349.51L593.5 325.553L617.457 349.51L623.5 343.467L599.543 319.51L623.5 295.553Z" fill="#939393"/>
<path d="M922.057 286.617H905.653V355.68H922.057V286.617ZM899.086 293.191C899.086 298.644 894.681 303.063 889.242 303.063C883.804 303.056 879.399 298.637 879.399 293.198C879.399 287.745 883.804 283.333 889.242 283.333C894.681 283.34 899.086 287.759 899.086 293.198V293.191ZM946.655 286.617H930.251V355.68H946.655V286.617ZM854.201 333.881L842.498 307.989H830.196L819.361 333.144L808.05 307.989H792.463V294.833H776.06V307.989H769.5V322.678H776.06V355.68H792.463V322.678H797.382L813.792 355.68H825.27L836.184 329.629L848.234 355.68H859.712L876.115 322.678H881.034V355.68H897.437V307.989H866.272L854.186 333.881H854.201Z" fill="black"/>
<path d="M989.456 286.588H1064.95C1084.03 286.588 1099.5 302.058 1099.5 321.138C1099.5 340.217 1084.03 355.688 1064.95 355.688H989.456C970.377 355.688 954.906 340.217 954.906 321.138C954.906 302.058 970.377 286.588 989.456 286.588Z" fill="#6621D9"/>
<path d="M1006.9 315.894H1001.02C1000.88 314.99 1000.56 314.122 1000.1 313.341C999.66 312.606 999.091 311.958 998.417 311.432C997.731 310.904 996.954 310.507 996.125 310.26C995.235 309.978 994.309 309.84 993.376 309.848C991.626 309.848 990.078 310.289 988.726 311.164C987.373 312.032 986.317 313.305 985.551 314.99C984.784 316.661 984.401 318.708 984.401 321.116C984.401 323.525 984.784 325.644 985.551 327.322C986.325 328.992 987.381 330.258 988.726 331.119C990.078 331.965 991.619 332.384 993.362 332.384C994.324 332.384 995.228 332.261 996.06 332.008C996.877 331.762 997.651 331.372 998.338 330.866C999.755 329.81 1000.71 328.252 1001.02 326.512L1006.9 326.54C1006.68 328.045 1006.2 329.499 1005.47 330.837C1004.74 332.177 1003.78 333.377 1002.63 334.381C1001.46 335.393 1000.08 336.189 998.512 336.76C996.942 337.324 995.192 337.606 993.275 337.606C990.447 337.606 987.923 336.955 985.703 335.654C983.482 334.344 981.732 332.457 980.452 329.998C979.172 327.531 978.535 324.573 978.535 321.123C978.535 317.673 979.179 314.708 980.466 312.256C981.754 309.79 983.511 307.902 985.732 306.6C987.952 305.298 990.469 304.64 993.275 304.64C995.069 304.64 996.732 304.893 998.273 305.392C999.77 305.87 1001.17 306.622 1002.39 307.598C1003.6 308.56 1004.58 309.739 1005.36 311.142C1006.15 312.531 1006.66 314.122 1006.9 315.909V315.894ZM1012.24 305.067H1019.37L1028.92 328.32H1029.3L1038.85 305.067H1045.99V337.165H1040.39V315.113H1040.09L1031.2 337.071H1027.02L1018.12 315.07H1017.82V337.165H1012.22V305.067H1012.24ZM1069.82 313.891C1069.68 312.524 1069.06 311.453 1067.97 310.694C1066.9 309.927 1065.49 309.551 1063.76 309.551C1062.55 309.551 1061.51 309.732 1060.64 310.101C1059.77 310.462 1059.11 310.962 1058.64 311.591C1058.18 312.22 1057.95 312.929 1057.93 313.739C1057.93 314.404 1058.09 314.99 1058.39 315.475C1058.7 315.966 1059.13 316.386 1059.66 316.726C1060.2 317.059 1060.79 317.341 1061.43 317.572C1062.08 317.804 1062.74 317.992 1063.39 318.151L1066.41 318.903C1067.63 319.185 1068.79 319.568 1069.92 320.046C1071.05 320.523 1072.06 321.131 1072.96 321.861C1073.85 322.592 1074.57 323.474 1075.09 324.508C1075.61 325.542 1075.87 326.757 1075.87 328.146C1075.87 330.027 1075.39 331.683 1074.42 333.115C1073.46 334.532 1072.07 335.646 1070.24 336.449C1068.44 337.245 1066.24 337.642 1063.66 337.642C1061.09 337.642 1058.98 337.259 1057.14 336.485C1055.31 335.711 1053.87 334.583 1052.84 333.1C1051.81 331.618 1051.25 329.81 1051.17 327.676H1056.91C1056.99 328.79 1057.33 329.723 1057.94 330.461C1058.55 331.205 1059.34 331.755 1060.31 332.124C1061.3 332.486 1062.4 332.666 1063.62 332.666C1064.84 332.666 1066 332.478 1066.95 332.102C1067.92 331.719 1068.67 331.184 1069.22 330.504C1069.76 329.817 1070.04 329.007 1070.05 328.095C1070.04 327.257 1069.8 326.569 1069.31 326.027C1068.83 325.47 1068.15 325.014 1067.29 324.646C1066.31 324.233 1065.3 323.893 1064.27 323.64L1060.61 322.7C1057.96 322.02 1055.87 320.993 1054.33 319.612C1052.8 318.223 1052.03 316.379 1052.03 314.079C1052.03 312.191 1052.55 310.528 1053.57 309.11C1054.61 307.685 1056.02 306.586 1057.8 305.805C1059.58 305.009 1061.6 304.611 1063.85 304.611C1066.1 304.611 1068.13 305.009 1069.85 305.805C1071.58 306.586 1072.94 307.678 1073.93 309.081C1074.91 310.47 1075.42 312.068 1075.45 313.876H1069.84L1069.82 313.891Z" fill="white"/>
</svg>
